images/icon/boutique.svg

<svg width="18" height="16" xmlns="http://www.w3.org/2000/svg" xmlns:svg="http://www.w3.org/2000/svg">
 <!-- Generator: Sketch 52.5 (67469) - http://www.bohemiancoding.com/sketch -->

 <title>store_mall_directory</title>
 <desc>Created with Sketch.</desc>
 <g class="layer">
  <title>Layer 1</title>
  <g id="Icons" fill="none" fill-rule="evenodd">
   <g id="Rounded" transform="translate(-613.000000, -3170.000000)">
    <g id="Maps" transform="translate(100.000000, 3068.000000)">
     <g id="-Round-/-Maps-/-store_mall_directory" transform="translate(510.000000, 98.000000)">
      <g id="svg_1">
       <polygon id="Path" points="0 0 24 0 24 24 0 24"/>
       <path d="m20.16,7.8c-0.09,-0.46 -0.5,-0.8 -0.98,-0.8l-14.36,0c-0.48,0 -0.89,0.34 -0.98,0.8l-0.84,4.2l0,1c0,0.55 0.45,1 1,1l0,5c0,0.55 0.45,1 1,1l8,0c0.55,0 1,-0.45 1,-1l0,-5l4,0l0,5c0,0.55 0.45,1 1,1c0.55,0 1,-0.45 1,-1l0,-5c0.55,0 1,-0.45 1,-1l0,-1l-0.84,-4.2zm-8.16,10.2l-6,0l0,-4l6,0l0,4zm-7,-12l14,0c0.55,0 1,-0.45 1,-1c0,-0.55 -0.45,-1 -1,-1l-14,0c-0.55,0 -1,0.45 -1,1c0,0.55 0.45,1 1,1z" id="🔹-Icon-Color" fill="#9356dc"/>
      </g>
     </g>
    </g>
   </g>
  </g>
 </g>
</svg>

<?xml version="1.0" encoding="UTF-8"?>
<svg width="18px" height="16px" viewBox="0 0 18 16" version="1.1" xmlns="http://www.w3.org/2000/svg" xmlns:xlink="http://www.w3.org/1999/xlink">
    <!-- Generator: Sketch 52.5 (67469) - http://www.bohemiancoding.com/sketch -->
    <title>store_mall_directory</title>
    <desc>Created with Sketch.</desc>
    <g id="Icons" stroke="none" stroke-width="1" fill="none" fill-rule="evenodd">
        <g id="Rounded" transform="translate(-613.000000, -3170.000000)">
            <g id="Maps" transform="translate(100.000000, 3068.000000)">
                <g id="-Round-/-Maps-/-store_mall_directory" transform="translate(510.000000, 98.000000)">
                    <g>
                        <polygon id="Path" points="0 0 24 0 24 24 0 24"></polygon>
                        <path d="M20.16,7.8 C20.07,7.34 19.66,7 19.18,7 L4.82,7 C4.34,7 3.93,7.34 3.84,7.8 L3,12 L3,13 C3,13.55 3.45,14 4,14 L4,19 C4,19.55 4.45,20 5,20 L13,20 C13.55,20 14,19.55 14,19 L14,14 L18,14 L18,19 C18,19.55 18.45,20 19,20 C19.55,20 20,19.55 20,19 L20,14 C20.55,14 21,13.55 21,13 L21,12 L20.16,7.8 Z M12,18 L6,18 L6,14 L12,14 L12,18 Z M5,6 L19,6 C19.55,6 20,5.55 20,5 C20,4.45 19.55,4 19,4 L5,4 C4.45,4 4,4.45 4,5 C4,5.55 4.45,6 5,6 Z" id="🔹-Icon-Color" fill="#1D1D1D"></path>
                    </g>
                </g>
            </g>
        </g>
    </g>
</svg>
